img/exam-negative.svg

<svg width="170" height="170" viewBox="0 0 170 170" fill="none" xmlns="http://www.w3.org/2000/svg">
<path d="M85 170C131.944 170 170 131.944 170 85C170 38.0558 131.944 0 85 0C38.0558 0 0 38.0558 0 85C0 131.944 38.0558 170 85 170Z" fill="#FDEDEE"/>
<path d="M85 132.813C88.9582 124.834 95.0661 118.12 102.635 113.427C110.204 108.734 118.934 106.248 127.84 106.25" stroke="#E84855" stroke-width="6" stroke-linecap="round" stroke-linejoin="round"/>
<mask id="path-3-outside-1" maskUnits="userSpaceOnUse" x="44.4688" y="65.7188" width="18" height="18" fill="black">
<rect fill="white" x="44.4688" y="65.7188" width="18" height="18"/>
<path d="M53.125 71.7188C53.6504 71.7188 54.1639 71.8745 54.6007 72.1664C55.0375 72.4583 55.378 72.8731 55.5791 73.3585C55.7801 73.8439 55.8327 74.3779 55.7302 74.8932C55.6277 75.4085 55.3747 75.8818 55.0033 76.2533C54.6318 76.6247 54.1585 76.8777 53.6432 76.9802C53.1279 77.0827 52.5939 77.0301 52.1085 76.8291C51.6231 76.628 51.2083 76.2876 50.9164 75.8507C50.6245 75.4139 50.4688 74.9004 50.4688 74.375C50.4688 73.6705 50.7486 72.9949 51.2467 72.4967C51.7449 71.9986 52.4205 71.7188 53.125 71.7188Z"/>
</mask>
<path d="M53.125 77.7188C52.4637 77.7188 51.8172 77.5226 51.2673 77.1552L57.9342 67.1776C56.5106 66.2264 54.8371 65.7188 53.125 65.7188V77.7188ZM51.2673 77.1552C50.7174 76.7878 50.2889 76.2656 50.0358 75.6546L61.1223 71.0624C60.4672 69.4807 59.3577 68.1288 57.9342 67.1776L51.2673 77.1552ZM50.0358 75.6546C49.7827 75.0436 49.7165 74.3713 49.8455 73.7227L61.6149 76.0638C61.9489 74.3846 61.7775 72.6441 61.1223 71.0624L50.0358 75.6546ZM49.8455 73.7227C49.9745 73.074 50.293 72.4782 50.7606 72.0106L59.2459 80.4959C60.4565 79.2853 61.2809 77.7429 61.6149 76.0638L49.8455 73.7227ZM50.7606 72.0106C51.2283 71.543 51.8241 71.2245 52.4727 71.0955L54.8137 82.8649C56.4929 82.5309 58.0353 81.7065 59.2459 80.4959L50.7606 72.0106ZM52.4727 71.0955C53.1213 70.9665 53.7936 71.0327 54.4046 71.2858L49.8124 82.3723C51.3941 83.0275 53.1346 83.1989 54.8137 82.8649L52.4727 71.0955ZM54.4046 71.2858C55.0156 71.5389 55.5378 71.9674 55.9052 72.5173L45.9276 79.1842C46.8788 80.6077 48.2307 81.7172 49.8124 82.3723L54.4046 71.2858ZM55.9052 72.5173C56.2726 73.0672 56.4688 73.7137 56.4688 74.375H44.4688C44.4688 76.0871 44.9764 77.7606 45.9276 79.1842L55.9052 72.5173ZM56.4688 74.375C56.4688 75.2618 56.1165 76.1123 55.4894 76.7394L47.0041 68.2541C45.3807 69.8775 44.4688 72.0792 44.4688 74.375H56.4688ZM55.4894 76.7394C54.8623 77.3665 54.0118 77.7188 53.125 77.7188V65.7188C50.8292 65.7188 48.6275 66.6307 47.0041 68.2541L55.4894 76.7394Z" fill="#E84855" mask="url(#path-3-outside-1)"/>
<mask id="path-5-outside-2" maskUnits="userSpaceOnUse" x="102.487" y="55.5132" width="18" height="18" fill="black">
<rect fill="white" x="102.487" y="55.5132" width="18" height="18"/>
<path d="M111.144 61.5132C111.669 61.5132 112.182 61.669 112.619 61.9608C113.056 62.2527 113.397 62.6676 113.598 63.1529C113.799 63.6383 113.851 64.1724 113.749 64.6876C113.646 65.2029 113.393 65.6762 113.022 66.0477C112.65 66.4192 112.177 66.6721 111.662 66.7746C111.146 66.8771 110.612 66.8245 110.127 66.6235C109.642 66.4224 109.227 66.082 108.935 65.6452C108.643 65.2083 108.487 64.6948 108.487 64.1694C108.487 63.465 108.767 62.7893 109.265 62.2912C109.763 61.793 110.439 61.5132 111.144 61.5132Z"/>
</mask>
<path d="M111.144 67.5132C110.482 67.5132 109.836 67.3171 109.286 66.9497L115.953 56.972C114.529 56.0209 112.856 55.5132 111.144 55.5132V67.5132ZM109.286 66.9497C108.736 66.5822 108.307 66.06 108.054 65.449L119.141 60.8568C118.486 59.2751 117.376 57.9232 115.953 56.972L109.286 66.9497ZM108.054 65.449C107.801 64.8381 107.735 64.1657 107.864 63.5171L119.633 65.8582C119.967 64.179 119.796 62.4385 119.141 60.8568L108.054 65.449ZM107.864 63.5171C107.993 62.8685 108.312 62.2727 108.779 61.805L117.264 70.2903C118.475 69.0797 119.299 67.5373 119.633 65.8582L107.864 63.5171ZM108.779 61.805C109.247 61.3374 109.843 61.0189 110.491 60.8899L112.832 72.6594C114.511 72.3254 116.054 71.5009 117.264 70.2903L108.779 61.805ZM110.491 60.8899C111.14 60.7609 111.812 60.8271 112.423 61.0802L107.831 72.1668C109.413 72.8219 111.153 72.9934 112.832 72.6594L110.491 60.8899ZM112.423 61.0802C113.034 61.3333 113.556 61.7619 113.924 62.3117L103.946 68.9786C104.897 70.4021 106.249 71.5116 107.831 72.1668L112.423 61.0802ZM113.924 62.3117C114.291 62.8616 114.487 63.5081 114.487 64.1694H102.487C102.487 65.8815 102.995 67.5551 103.946 68.9786L113.924 62.3117ZM114.487 64.1694C114.487 65.0563 114.135 65.9067 113.508 66.5338L105.023 58.0485C103.399 59.6719 102.487 61.8736 102.487 64.1694H114.487ZM113.508 66.5338C112.881 67.1609 112.03 67.5132 111.144 67.5132V55.5132C108.848 55.5132 106.646 56.4252 105.023 58.0485L113.508 66.5338Z" fill="#E84855" mask="url(#path-5-outside-2)"/>
</svg>

<svg xmlns="http://www.w3.org/2000/svg" width="170" height="170" fill="none"><path fill="#FDEDEE" d="M85 170c46.944 0 85-38.056 85-85S131.944 0 85 0 0 38.056 0 85s38.056 85 85 85Z"/><path stroke="#E84855" stroke-linecap="round" stroke-linejoin="round" stroke-width="6" d="M85 132.813a47.808 47.808 0 0 1 42.84-26.563"/><mask id="a" width="18" height="18" x="44.469" y="65.719" fill="#000" maskUnits="userSpaceOnUse"><path fill="#fff" d="M44.469 65.719h18v18h-18z"/><path d="M53.125 71.719a2.656 2.656 0 1 1 0 5.311 2.656 2.656 0 0 1 0-5.311Z"/></mask><path fill="#E84855" d="M53.125 77.719a3.344 3.344 0 0 1-1.858-.564l6.667-9.977a8.656 8.656 0 0 0-4.809-1.46v12Zm-1.858-.564a3.343 3.343 0 0 1-1.231-1.5l11.086-4.593a8.656 8.656 0 0 0-3.188-3.884l-6.667 9.977Zm-1.231-1.5a3.344 3.344 0 0 1-.19-1.932l11.769 2.34a8.656 8.656 0 0 0-.493-5l-11.086 4.592Zm-.19-1.932a3.344 3.344 0 0 1 .915-1.712l8.485 8.485a8.656 8.656 0 0 0 2.369-4.432l-11.77-2.341Zm.915-1.712a3.344 3.344 0 0 1 1.712-.915l2.34 11.769a8.656 8.656 0 0 0 4.433-2.37l-8.485-8.484Zm1.712-.915a3.344 3.344 0 0 1 1.932.19l-4.593 11.086a8.656 8.656 0 0 0 5.002.493l-2.341-11.77Zm1.932.19a3.343 3.343 0 0 1 1.5 1.231l-9.977 6.667a8.656 8.656 0 0 0 3.884 3.188l4.593-11.086Zm1.5 1.231c.368.55.564 1.197.564 1.858h-12c0 1.712.507 3.386 1.459 4.81l9.977-6.668Zm.564 1.858a3.34 3.34 0 0 1-.98 2.364l-8.485-8.485a8.656 8.656 0 0 0-2.535 6.121h12Zm-.98 2.364a3.344 3.344 0 0 1-2.364.98v-12a8.656 8.656 0 0 0-6.12 2.535l8.484 8.485Z" mask="url(#a)"/><mask id="b" width="18" height="18" x="102.487" y="55.513" fill="#000" maskUnits="userSpaceOnUse"><path fill="#fff" d="M102.487 55.513h18v18h-18z"/><path d="M111.144 61.513a2.656 2.656 0 1 1-.001 5.312 2.656 2.656 0 0 1 .001-5.312Z"/></mask><path fill="#E84855" d="M111.144 67.513a3.344 3.344 0 0 1-1.858-.563l6.667-9.978a8.657 8.657 0 0 0-4.809-1.459v12Zm-1.858-.563a3.344 3.344 0 0 1-1.232-1.501l11.087-4.592a8.658 8.658 0 0 0-3.188-3.885l-6.667 9.978Zm-1.232-1.501a3.344 3.344 0 0 1-.19-1.932l11.769 2.341a8.658 8.658 0 0 0-.492-5.001l-11.087 4.592Zm-.19-1.932a3.349 3.349 0 0 1 .915-1.712l8.485 8.485a8.653 8.653 0 0 0 2.369-4.432l-11.769-2.34Zm.915-1.712a3.348 3.348 0 0 1 1.712-.915l2.341 11.77a8.654 8.654 0 0 0 4.432-2.37l-8.485-8.485Zm1.712-.915a3.344 3.344 0 0 1 1.932.19l-4.592 11.087a8.656 8.656 0 0 0 5.001.492l-2.341-11.77Zm1.932.19a3.348 3.348 0 0 1 1.501 1.232l-9.978 6.667a8.655 8.655 0 0 0 3.885 3.188l4.592-11.087Zm1.501 1.232c.367.55.563 1.196.563 1.857h-12a8.66 8.66 0 0 0 1.459 4.81l9.978-6.667Zm.563 1.857c0 .887-.352 1.738-.979 2.365l-8.485-8.486a8.654 8.654 0 0 0-2.536 6.121h12Zm-.979 2.365a3.344 3.344 0 0 1-2.364.98v-12a8.656 8.656 0 0 0-6.121 2.534l8.485 8.486Z" mask="url(#b)"/></svg>
